X: 33701
T: Rannafast, The
R: jig
M: 6/8
K: Amixolydian
|:G|ABA GFG|ABc def|gbg faf|ecA G2G|
ABA GFG|ABc def|gbg faf|ecA A2:|
|:^g|aec ABA|cBA e2f|gdB ~G3|BGB ef^g|
aec ABA|cBA e2f|gbg faf|ecA A2:|
K:Amaj
|:E|AGA cec|dfd cec|BdB AcA|GBG EFG|
AGA cec|dfd cec|BGE dBG|ABA A2:|

